X: 713
T: Zuo ying
L: 1/8
M: 2/4
K: D
ee2f [I:setbarnb 1]| 
e d B A | 
B d e e | 
A4 | 
B A B e | 
d BA2 | 
G A d F | 
E4 |]

@@@ Tune index: 9587
